!!!OTL: Graf und Nonne (Die Nonne)
!!!OTL-incipit:Ich stand auf hohem Berge,
!!!ARE: Europa, Mitteleuropa, Deutschland (BRD), Hessen, Giessen, Crumbach
!!!YOR: 8, S. 67
!!    1921 aufgezeichnet
!!!SCT: Q0155R
!!!TXL: @@DE
!!!YEM: Copyright 1995, estate of Helmut Schaffrath.
**kern	**text
*ICvox	*
*M6/8	*
*k[f#]	*
*G:	*
{8d	Ich
=1	=1
4b	stand
8a	auf
4g	ho-
8e	-hem
=2	=2
(4d	Ber-
8b)	.
4b}	-ge,
{16bL	schau-
16bJ	-te
=3	=3
4a	in
8a	das
(8ccL	tie-
8b)	.
8aJ	-fe
=4	=4
[4.b	Tal,
8b]	.
8r}	.
{8b	da
=5	=5
4dd	kam
8b	ein
4ee	Schiff
8dd	ge-
=6	=6
(4cc	-fah-
8b)	.
4a}	-ren,
{8g	wo-
=7	=7
4f#	-rin
8a	drei
4dd	Gra-
8cc	-fen
=8	=8
[4.b	warn,
8b]	.
8r}	.
{8b	da
=9	=9
4cc	kam
8ee	ein
4dd	Schiff
8cc	ge-
=10	=10
(4b	-fah-
8a)	.
4g}	-ren,
{8g	wo-
=11	=11
4f#	-rin
8a	drei
4dd	Gra-
8cc	-fen
=12	=12
[4.b	war'n.
4b]}	.
==	==
!!!AGN: Ballade, Standesunterschied, Werbung, Liebe, Glueck
!!!ONB: ESAC (Essen Associative Code) Database: BALLADE
!!!AMT: compound duple
!!!AIN: vox
!!!EED: Helmut Schaffrath
!!!EEV: 1.0
!!@@COMMENT:"Aufʒeichnung in Crumbach (bei Gieben
!!1921 (Sammlung Georg Ʒitter; DVA=A 102 923)"
!!@@END:
!!!source: Deutsche Volkslieder mit ihren Melodien. Herausgegeben vom Deutschen Volksliedarchiv. Achter Teil. Freiburg/Breisgau 1988.
!!!page: 67
!!!ENC: Anna Maria Matuszewska
!!!EEV: 2025/03/10
*-	*-
